X: 91
T: Smith's Reel
%T: Kitty's wedding
%T: Belle(s) of Lexington
C: George Saunders? 1847
B: George Saunders "New and Scientific Self-Instructing School for the Violin", Providence, RI, 1847, #39
B: NEFR #91
B: Francis O'Neill: "The Dance Music of Ireland" (1907) no. 846
R: Hornpipe
F: http://www.ibiblio.org/fiddlers/SMA_SNY.htm
F: http://www.musicaviva.com/abc/tunes/ireland/oneill-1001/0846/oneill-1001-0846-1.abc
N: This tune is well known in North America and Ireland, and there are many verssions.
N: The A and B parts are often interchanged.
M: C|
L: 1/8
K: D
fe \
| "D"d2 Bd A2 FA | BA FA D2 ED | B,DA,D DF BF | AF DF "A7"E2 fe |
| "D"d2 Bd A2 FA | BA FA D2 ED | B,DA,D DF BA | "A7"AF EF "D"D2 :|
|: fg \
| "D"af ed ba fd | Ad fd ed Bd | "D"DF Ad FA de | fa df "A7"e2 fg |
| "D"af ed ba fd | Ad fd ed Bd | "D"DF Ad FA df | "A7"eA Bc "D"d2 :|


